X: 32637
T: Pleasures Of Hope, The
R: hornpipe
M: 4/4
K: Dmajor
|:(3ABc|"D"dA"d"FA "G"BG"g"EG|"D"(3FED "d"FA dA"d"GF|"G"Ee"g"ef (3gfe "g"fd|"A"ec"a"AB AGFE|
"D"Fd"d"dc dA"d"GF|"G"Ee"g"ef (3gfe "A"cA|"D"df"d"af "A"bg"a"ec|"D"(3ded "d"dc d2:|
|:(3ABc|"D"df"d"af "A"bg"a"ec|"D"df"d"af ge"A"cA|"D"df"d"af (3gfe "d"fd|"G"(3BdB "g"BA "A"Bd"a"AG|
"D"Fd"d"dc dA"d"GF|"G"Ee "g"ef (3gfe "A"cA|"D"df"d"af "A"bg"a"ec|"D"(3ded "d"dcd2:|

